svgs/sharp-thin/square-2.svg

<svg xmlns="http://www.w3.org/2000/svg" viewBox="0 0 448 512"><!--! Font Awesome Pro 6.6.0 by @fontawesome - https://fontawesome.com License - https://fontawesome.com/license (Commercial License) Copyright 2024 Fonticons, Inc. --><path d="M16 48l0 416 416 0 0-416L16 48zM0 32l16 0 416 0 16 0 0 16 0 416 0 16-16 0L16 480 0 480l0-16L0 48 0 32zM227 144.4c-14.4-.2-28.3 4.6-39.6 13.6L157 182.2l-6.2 5-10-12.5 6.2-5 30.4-24.3c14.1-11.3 31.7-17.3 49.8-17.1l2.3 0C270.8 129 304 162.7 304 204c0 20.1-8 39.3-22.1 53.5L171.3 368 312 368l8 0 0 16-8 0-160 0-8 0 0-11.3 2.3-2.3L270.5 246.1C281.7 235 288 219.8 288 204c0-32.6-26.2-59.1-58.8-59.6l-2.3 0z"/></svg>

<svg xmlns="http://www.w3.org/2000/svg" viewBox="0 0 448 512"><!--! Font Awesome Pro 6.5.2 by @fontawesome - https://fontawesome.com License - https://fontawesome.com/license (Commercial License) Copyright 2024 Fonticons, Inc. --><path d="M16 48V464H432V48H16zM0 32H16 432h16V48 464v16H432 16 0V464 48 32zM227 144.4c-14.4-.2-28.3 4.6-39.6 13.6L157 182.2l-6.2 5-10-12.5 6.2-5 30.4-24.3c14.1-11.3 31.7-17.3 49.8-17.1l2.3 0C270.8 129 304 162.7 304 204c0 20.1-8 39.3-22.1 53.5L171.3 368H312h8v16h-8H152h-8V372.7l2.3-2.3L270.5 246.1C281.7 235 288 219.8 288 204c0-32.6-26.2-59.1-58.8-59.6l-2.3 0z"/></svg>
